docs/img/icons/service/icon-4.svg

<svg width="42" height="42" viewBox="0 0 42 42" fill="none" xmlns="http://www.w3.org/2000/svg">
<path d="M10.244 41.9999H4.02639C3.11604 41.9999 2.37866 41.3272 2.37866 40.5149V29.0455C2.37866 28.2251 3.12514 27.5605 4.02639 27.5605H10.244C11.1544 27.5605 11.8918 28.2333 11.8918 29.0455V40.5149C11.9009 41.3354 11.1544 41.9999 10.244 41.9999Z" fill="#05A14E"/>
<path d="M23.8172 42H18.1913C17.1262 42 16.2432 41.2124 16.2432 40.2443V23.6965C16.2432 22.7366 17.1171 21.9408 18.1913 21.9408H23.8172C24.8823 21.9408 25.7654 22.7284 25.7654 23.6965V40.2443C25.7654 41.2124 24.8914 42 23.8172 42Z" fill="#05A14E"/>
<path d="M37.4361 42H32.3109C31.1001 42 30.1169 41.1058 30.1169 40.0228V18.4048C30.1169 17.3137 31.1092 16.4276 32.3109 16.4276H37.4361C38.6469 16.4276 39.63 17.3219 39.63 18.4048V40.0228C39.63 41.114 38.6469 42 37.4361 42Z" fill="#05A14E"/>
<path d="M38.219 0.00278594C36.2162 0.0766235 34.6595 1.6026 34.7415 3.41572L25.4924 11.6117L17.6088 5.39293L3.17983 18.4376C1.32273 18.6509 -0.0700979 20.0948 0.00272963 21.8095C0.0846606 23.6144 1.787 25.0173 3.78976 24.9435C5.79252 24.8696 7.34921 23.3355 7.26728 21.5305C7.25817 21.3829 7.22176 21.2434 7.19445 21.0957L18.0549 11.7019L25.6744 17.7156L38.3009 6.54151C38.3737 6.54151 38.4466 6.55792 38.5194 6.54972C40.5221 6.47588 42.0788 4.9417 41.9969 3.13678C41.915 1.33186 40.2217 -0.0710517 38.219 0.00278594Z" fill="#05A14E"/>
</svg>

<svg width="42" height="42" fill="none" xmlns="http://www.w3.org/2000/svg"><path d="M10.244 42H4.026c-.91 0-1.647-.673-1.647-1.485v-11.47c0-.82.746-1.485 1.647-1.485h6.218c.91 0 1.648.673 1.648 1.486v11.469c.009.82-.738 1.485-1.648 1.485zm13.573 0h-5.626c-1.065 0-1.948-.788-1.948-1.756V23.697c0-.96.874-1.756 1.948-1.756h5.626c1.065 0 1.948.787 1.948 1.756v16.547c0 .968-.874 1.756-1.948 1.756zm13.619 0h-5.125c-1.21 0-2.194-.894-2.194-1.977V18.405c0-1.091.992-1.977 2.194-1.977h5.125c1.21 0 2.194.894 2.194 1.977v21.618c0 1.091-.983 1.977-2.194 1.977zM38.219.003c-2.003.074-3.56 1.6-3.477 3.413l-9.25 8.196-7.883-6.22-14.43 13.046C1.324 18.65-.07 20.095.004 21.81c.082 1.804 1.784 3.207 3.787 3.134 2.003-.074 3.56-1.608 3.477-3.413-.009-.148-.045-.288-.073-.435l10.86-9.394 7.62 6.014L38.301 6.542c.073 0 .146.016.218.008 2.003-.074 3.56-1.608 3.478-3.413-.082-1.805-1.775-3.208-3.778-3.134z" fill="#05A14E"/></svg>
